X: 1
T: Sl\"angpolska efter Vingel-Anders
T: Sl\"angpolska fr\aan Ovan\aaker
R: polska
F: http://www.bluerose.karenlmyers.org/media/trans/1610.pdf
N: His real name was Anders Jansson-Wikstr\"om, from Sj\"osveden, Sk\aalsjon in H\"alsingland
M: 3/4
L: 1/16
K: A
(f \
|: e3)(d c3)(e a3)c' | e3(d c2)(e2 (3g2)b2g2 | e3(c d3)(B c2)(A2 |1,3 E2)GB e4 f4 :|2,4 E2GB A8 :|
|: E4 e3(d (3c2)e2c2 | D4 f3e (3d2(f2d2) | B4 (b3g) e3g |1,3 (a3c') (e3a) c3e :|2,4 (ag)fg a8 :|
